X:15
T:Old Sea Belle. Roose.0461, The
B:J.Roose MS, Manchester, 1850
Z:Village Music Project, David Jacobs 2019
M:C
L:1/8
Q:1/4=100
K:G
z2|G2 (D/E/F) GFED|E2 (C/D/E) FEDC|D2 (B,/C/D) EDCB,|C2D2G,4|
d2dc B2B2|e2e2 {B}A3B|cBAG GFGA|B2A2G2:|
|:z2|G2 GA B2 AG|F2 FG A2 GF|E2 EF GFGA|B2B2 E4|
g2 (ga/g/) f2 (fg/f/)|e2 (e/f/g) ag (f/e/d)|g2 (g/a/g) f2 (f/g/f)|(e/f/g) (a/g/f)g2:|
|:g>f|e2C>B, A,2e>d|c2B,>A, G,3e|dBAG GFGA|B2A2G2g>f|
e2C>B, A,2e>d|c2B,>A, G,3e|dBAG GFGA|B2A2G2:|

